X: 1
T: Bark In The Morning, The
M: 6/8
L: 1/8
R: jig
K: Edor
A|BEF GFE|Bed B2e|~g3 edB|AGA BGE|
BEF GFE|Bed B2e|~g3 edB|ABG E2:|:B|
egb bge|afd def|~g3 edB|ABd BAG|
egb bge|afd def|~g3 edB|ABG E2:|
